X:2
T:Aspen Bank
R:Strathspey
C:T. Douglas
Z:Transcribed 7 July, 2016 by Stephen Beitzel
M:4/4
L:1/8
K:D
%%scale 0.6
[|: {Gdc}d2 {g}c>d {g}B<d {g}A>B | {Gdc}d2 {gfg}f>d {ag}a>d {gfg}f>e | {Gdc}d>e {g}f>d {g}B<d {g}A>d | {gef}e>d {g}(3(f/2e/2d) {g}c<e {A}e>f :|]
[|: {ag}a2 f<a {Gdc}d>af<a | {f}g>e {gfg}f>d {gef}e>d {gfg}f>d |1 {ag}a2 f<a {Gdc}d>af<a | {f}g>e {g}(3(f/2e/2d) {g}c<e {A}e>f :|]
|2 {g}B2 {GdGe}B>d {g}A>d {gfg}f>d | {g}f<a (3(g/2f/2e) {gfg}f>e {Gdc}d |]
